X:1
T:Come ti vedo
T:Giovanni Animuccia
T:Source : Primo libro delle Laude spirituali a tre voci---Roma---A.Gardano---1583. Editor : André Vierendeels : (21/11/17). Notes ; Original clefs : G2, C1, C3 Editorial accidentals above the staff Dialogo Christo/Anima
T:Come ti vedo
T:©
T:©
C:Giovanni Animuccia
Z:©
%%score [ 1 2 3 ]
L:1/8
Q:1/4=120
M:4/4
K:C
V:1 treble nm="Soprano" snm="S"
V:2 treble nm="Alto" snm="A"
V:3 treble-8 nm="Tenor" snm="T"
V:1
"^ANIMA:""^1)" d4 c2 B2 | B4 B2 B2 | d3 c B2 B2 | A4 A4 | A4 A2 A2 | A6 A2 | B2 c2 d2 d2 | B4 B4 :: %8
w: Co- me ti|ve- do hoi-|me di san- gue'as-|per- so,|e tut- t'im-|mer- so|ne'i do- lor di|mor- te,|
w: Mi tra- di|fie- ro, e|dis- le- a- le'a-|mi- co,|pian- gen- do'l|di- co'et|al- tri mi la-|scia- ro,|
 d4 c2 B2 | B4 B4 | d2 c2 B2 B2 | A4 A4 | G4 G2 G2 | A4 B4 | c8 | B4 B4 | A8 | G8 :| %18
w: O guer- rier|for- t'è|chi t'ha si pia-|ga- to,|ben cru- do'è|sta- to,|ben|cru- do'è|sta-|to.|
w: Che pur giu-|ra- ro|di se- guir mia|sor- te,|fra cop- pi'e|mor- te,|fra|cop- pi'e|mor-|te.|
V:2
"^CHRISTO:""^2)""^1)" G4 E2 G2 | G4 G4 | G3 G G2 G2 | ^F4 F4 | ^F4 F2 F2 | ^F6 F2 | D2 E2 ^F2 F2 | %7
w: Co- me ti|ve- do'hoi|me di san- gue'as-|per- so,|e tut- t'im-|mer- so|ne'i do- lor di|
w: Io cor- si|co- me'A-|gnel- lo'al- la ton-|su- ra,|tra gen- te|du- ra'e|per l'al- trui de-|
 G4 G4 :: G4 E2 G2 | G4 G4 | G3 G G2 G2 | ^F4 F4 | E4 E2 G2 | ^F4 G4 | A8 | G4 G4 | ^F8 | G8 :| %18
w: mor- te,|O guer- rier|for- t'è|chi t'ha si pia-|ga- to,|ben cru- do'è|sta- to,|ben|cru- do'è|sta-|to.|
w: lit- to,|hor qui tra-|fit- to|son co- me tu|ve- di,|e ma- ni'e|prie- di,|e|ma- ni'e|pre-|di.|
V:3
"^3)""^1)""^4)""^CHRISTO:""^CHRISTO:" G4 A2 G2 | G4 G4 | G2 A2 B2 c2 | d4 d4 | d4 d2 d2 | d6 d2 | %6
w: Co- me ti|ve- do'hoi|me di san- gue'as-|per- so,|e tut- t'im-|mer- so|
w: E non già|per Cit-|ta- di'o per Ca-|stel- la,|ma per te|bel- la'e|
 B2 A2 d2 d2 | G4 G4 :: G4 c2 G2 | G4 G4 | G2 A2 B2 c2 | d4 d4 | c4 c2 e2 | d4 G4 | F8 | G4 G4 | %16
w: ne'i do- lor di|mor- te,|O guer- rier|for- t'è|chi t'ha si pia-|ga- to,|ben cru- do'è|sta- to,|ben|cru- do'è|
w: dol- ce'A- ni- ma|mi- a,|che per so|ha- via,|con si grav' mar-|to- ro,|lan- guis- co'e|muo- ro,|lan-|guis- co'e|
 d8 | G8 :| %18
w: sta-|to.|
w: muo-|ro.|

